X: 07114
T: TOMCZAK'S POLKA
C: Bob McQuillen 26 Sept 86
B: Bob's Note Book 7 #114
%R: polka
Z: 2019 John Chambers <jc:trillian.mit.edu>
M: C
L: 1/8
K: Am	% and G
GF \
| "Am"E2 A4 c2 | "Em"e2 B4 c2 | "Em"BcBA "Am"G2A2 | "B"B6 GF \
| "Am"E2 A4 c2 | "Em"e2 B4 c2 | "Em"BAGB "D"d2e2 | "B7"B6 AB |
| "Am"cdcB A2c2 | "Em"B2 e4 c2 | "Em"BcBA "Am"G2A2 | "B"B6 AB \
| "Am"c2A2 A2c2 | "Em"BGE2 E2GA |"B7"BcBA G2F2 | "Em"E6 ||
|| DE \
| "G"G2D4 "D7"BA | "G"G2 D4 AG | "D7"F2d2 d2^cd | "D7"ed^ce d=cBA \
| "G"G2 D4 GA | "G"B2 G4 Bc | "D"defg "A7"f2g2 | "D7"a6 ga |
| "G"bgdg b2gb | "D"afdf "B"a2ba | "E7"geBe gbag | "D"f2d2 "D7"d2dc \
| "G"B2d2 "C"cdec | "G"d2g2 "C"age2 | "G"gedc "D7"B2A2 | "G"G6 |]
%%begintext align
%% We think we're
%% real lucky if we get to play music with Bill
%% Tomczak at the New England Folk Festival each
%% year. He's a great friend, and a superb clarinette
%% player. What a joy it is to know you, Bill --
%%endtext
%%begintext align
%% One time, at the Girl Scout House in Concord, MA., Ralph Page got Bill T., Bill Possi, and Rich Blagy
%% to play one of his tunes that he had written out a 3-part clarinette version for. Three great
%% clarinette players! Now I'm gonna tell you - THAT was remarkable to a degree beyond calculation!!
%%endtext

%%sep 1 1 500

%%sep 1 1 500

